X: 33391
T: Quick And Merry
R: jig
M: 6/8
K: Dmajor
|:D2d dcB|ABA AGF|GGG FFF|EEE GFE|
D2d dcB|ABA AGF|Bcd efg|fge d3:|
|:a3 f3|BdB BdB|g3 e3|AcA AcA|
ddd BBB|ggg eee|fga agf|gec d3:|

